public/assets/images/icons/green/edit/news2.svg

<svg width="16" height="16" xmlns="http://www.w3.org/2000/svg" viewBox="0 0 16 16" shape-rendering="geometricPrecision" fill="#00962d"><defs><mask id="a"><rect fill="#fff" width="100%" height="100%"/><path d="M15.568.488c.365-.9-.337-1.487-.851-1.704-.593-.25-1.396-.157-1.78.752l-.142.357-2.14 5.317.603 2.278 1.98-1.23L15.44.788l.128-.3z" fill="#000"/></mask></defs><path d="M11.686 6.423l.6-.513-.675-.269zM14.245.038a.714.714 0 0 0-.927.393l-.213.531 1.326.532.214-.532h-.001a.714.714 0 0 0-.399-.924zM11.527 4.9l1.433-3.573 1.325.532-1.433 3.572z" fill="#cb1800"/><g mask="url(#a)"><path d="M6.136 14.063l7.86-6.878-3.255-1.741-4.605 8.619zM0 4.568l4.147 11.214.838-1.57-1.421-3.844 4.331-1.602 2.457-4.6 4.406 2.352.003-.003L12.35-.002 0 4.568zm7.985 2.478l-4.97 1.838-.397-1.074 4.97-1.839.397 1.075zm4.073-4.002L2.204 6.688l-.398-1.074 9.854-3.646.398 1.076z"/></g></svg>

<?xml version="1.0"?><!DOCTYPE svg PUBLIC "-//W3C//DTD SVG 1.1//EN" "http://www.w3.org/Graphics/SVG/1.1/DTD/svg11.dtd"><svg width="16px" height="16px" xmlns="http://www.w3.org/2000/svg" viewBox="0 0 16 16" shape-rendering="geometricPrecision" fill="#00962d"><defs><mask id="edit-path"><rect fill="#fff" width="100%" height="100%"/><path d="M15.568,0.488c0.365-0.9-0.337-1.487-0.851-1.704c-0.593-0.25-1.396-0.157-1.78,0.752l-0.142,0.357 l-2.14,5.317l0.603,2.278l1.98-1.23l2.202-5.47L15.568,0.488z" fill="#000"/></mask></defs><g id="edit_3_" display="inline" fill="#cb1800"><polygon points="11.686,6.423 12.286,5.91 11.611,5.641 "/><path d="M14.245,0.038c-0.365-0.147-0.778,0.03-0.927,0.393l-0.213,0.531l1.326,0.532l0.214-0.532h-0.001 C14.787,0.597,14.61,0.183,14.245,0.038z"/><rect x="10.982" y="2.666" transform="matrix(0.3723 -0.9281 0.9281 0.3723 4.9642 14.0992)" width="3.849" height="1.428"/></g><g mask="url(#edit-path)"><path d="M6.136,14.063l7.86-6.878l-3.255-1.741L6.136,14.063z M0,4.568l4.147,11.214l0.838-1.57l-1.421-3.844 l4.331-1.602l2.457-4.6l4.406,2.352l0.003-0.003l-2.411-6.517L0,4.568z M7.985,7.046l-4.97,1.838L2.618,7.81l4.97-1.839 L7.985,7.046z M12.058,3.044L2.204,6.688L1.806,5.614l9.854-3.646L12.058,3.044z"/></g></svg>
